X:1
T:15. Ich bitt' dich.
T:Ich bitt' dich
T:Dedicado al signore illistrissimo Hauschka  dal suo servo L. v. B. 
T:Dreistimmiger Canon
C:Ludwig van Beethoven
Z:Dreistimmiger Canon.
%%score [ 1 2 3 ]
L:1/8
Q:1/4=60
M:4/4
K:Eb
V:1 treble nm="1. Stimme."
V:2 treble nm="2. Stimme."
V:3 treble nm="3. Stimme."
V:1
 B | e B z B G E D E/ E/ | G2 B B e2 z2 | (EF/G/ A/B/c/d/ e2) z2 | (ed/c/ B/A/G/F/ E2) z2 |: %5
w: Ich|bitt' dich, ich bitt' dich, schreib' mir die|Es- Sca- la auf.|A _ _ _ _ _ _ _|A _ _ _ _ _ _ _|
 (GA/B/ c/d/e/f/ g2) z2 | (gf/e/ d/c/B/A/ G2) z B | e B z B G E D E/ E/ | G2 B B e2 z2 | %9
w: A _ _ _ _ _ _ _|A _ _ _ _ _ _ _ Ich|bitt' dich, ich bitt' dich schreib' mir die|Es- Sca- la auf.|
 (EF/G/ A/B/c/d/ e2) z2 | (ed/c/ B/A/G/F/ E2) z2 :| %11
w: A _ _ _ _ _ _ _|A _ _ _ _ _ _ _|
V:2
 z | z8 | z4 z2 z B | e B z B G E D E/ E/ | G2 B B e2 z2 |: (EF/G/ A/B/c/d/ e2) z2 | %6
w: ||Ich|bitt' dich, ich bitt' dich schreib' mir die|Es- Sca- la auf.|A _ _ _ _ _ _ _|
 (ed/c/ B/A/G/F/ E2) z2 | (GA/B/ c/d/e/f/ g2) z2 | (gf/e/ d/c/B/A/ G2) z B | e B z B G E D E/ E/ | %10
w: A _ _ _ _ _ _ _|A _ _ _ _ _ _ _|A _ _ _ _ _ _ _ Ich|bitt' dich, ich bitt' dich schreib' mir die|
 G2 B B e2 z2 :| %11
w: Es- Sca- la auf.|
V:3
 z | z8 | z8 | z8 | z4 z2 z B |: e B z B G E D E/ E/ | G2 B B e2 z2 | (EF/G/ A/B/c/d/ e2) z2 | %8
w: ||||Ich|bitt' dich, ich bitt' dich schreib' mir die|Es- Sca- la- auf.|A _ _ _ _ _ _ _|
 (ed/c/ B/A/G/F/ E2) z2 | (GA/B/ c/d/e/f/ g2) z2 | (gf/e/ d/c/B/A/ G2 z B) :| %11
w: A _ _ _ _ _ _ _|A _ _ _ _ _ _ _|A _ _ _ _ _ _ _ Ich|

